packages/ui/public/icons/calendar-blank-outline.svg

<svg xmlns="http://www.w3.org/2000/svg" viewBox="0 0 24 24"><path d="M19 3H18V1H16V3H8V1H6V3H5C3.89 3 3 3.9 3 5V19C3 20.11 3.9 21 5 21H19C20.11 21 21 20.11 21 19V5C21 3.9 20.11 3 19 3M19 19H5V9H19V19M19 7H5V5H19V7Z" /></svg>

<svg xmlns="http://www.w3.org/2000/svg" viewBox="0 0 24 24"><path d="M19 3h-1V1h-2v2H8V1H6v2H5a2 2 0 0 0-2 2v14a2 2 0 0 0 2 2h14c1.11 0 2-.89 2-2V5a2 2 0 0 0-2-2m0 16H5V9h14v10m0-12H5V5h14v2Z"/></svg>
